assets/icons/websites/linkedin.svg

<svg width="24" height="24" viewBox="0 0 24 24" fill="none" xmlns="http://www.w3.org/2000/svg">
<path fill-rule="evenodd" clip-rule="evenodd" d="M0 0V24H24V0H0ZM7.4649 19.9386H3.90414V9.22581H7.4649V19.9386ZM5.68452 7.76366H5.66099C4.46653 7.76366 3.69231 6.94075 3.69231 5.91218C3.69231 4.86103 4.48916 4.06143 5.70783 4.06143C6.92677 4.06143 7.67583 4.86103 7.69915 5.91218C7.69915 6.94075 6.92677 7.76366 5.68452 7.76366ZM20.3077 19.9386H16.746V14.2072C16.746 12.7677 16.2314 11.7851 14.9423 11.7851C13.9578 11.7851 13.3728 12.4467 13.1151 13.0875C13.0214 13.3165 12.9969 13.6347 12.9969 13.9557V19.9386H9.43453C9.43453 19.9386 9.48227 10.2309 9.43453 9.22586H12.9969V10.7439C13.4702 10.0156 14.3149 8.97437 16.2069 8.97437C18.5508 8.97437 20.3077 10.5051 20.3077 13.7954V19.9386Z" fill="white"/>
</svg>

<svg xmlns="http://www.w3.org/2000/svg" width="24" height="24" fill="#E9E9E9" fill-rule="evenodd" xmlns:v="https://vecta.io/nano"><path d="M12.997 10.78v-.035l-.023.035h.023z"/><path d="M0 0v24h24V0H0zm7.465 19.94h-3.56V9.226h3.56V19.94zM5.685 7.764H5.66c-1.194 0-1.97-.823-1.97-1.85 0-1.05.797-1.85 2.016-1.85s1.968.8 1.99 1.85c0 1.03-.772 1.85-2.015 1.85zM20.308 19.94h-3.562v-5.73c0-1.44-.515-2.422-1.804-2.422-.984 0-1.57.662-1.827 1.302-.094.23-.118.547-.118.868v5.983H9.435V9.226h3.562v1.518c.473-.728 1.318-1.77 3.2-1.77 2.344 0 4.1 1.53 4.1 4.82v6.143z"/></svg>
